X: 603
T: bourre d'auvergne
M: 3/4
L: 1/8
R: bourree
K: Dmix
|:fg a2 a2|fg a2 a2|gf ec eg|f2 dc d2|fg a2 a2|fg a2 a2|gf ec ef|e6:|
|:ef ed cB|A2 c/B/A Bc|d2 ef ge|f2 d4|ef ed cB|A2 c/B/A Bc|d2 ef ec|d4 d2:|
